X:3
T:Agneau de Dieu
M:none
L:1/8
K:Cm
zC B,B,|C2 B,C EE FG FE|D2 D2||EC CB,|C4||
zE DD|E2 CE FF GA GF|E2 E2||FE FF|G4||
zG FF|G2 FG BB cB =AG|F2 F2||GE ED|C4||
